assets/icons/navigation/swap_vert.svg

<svg viewBox="0 0 24 24" xmlns="http://www.w3.org/2000/svg">
<path d="M13.9998 18.1748V11.9998C13.9998 11.7165 14.0958 11.4788 14.2878 11.2868C14.4791 11.0955 14.7165 10.9998 14.9998 10.9998C15.2831 10.9998 15.5208 11.0955 15.7128 11.2868C15.9041 11.4788 15.9998 11.7165 15.9998 11.9998V18.1748L17.8748 16.2998C18.0581 16.1165 18.2871 16.0205 18.5618 16.0118C18.8371 16.0038 19.0748 16.0998 19.2748 16.2998C19.4748 16.4831 19.5791 16.7121 19.5878 16.9868C19.5958 17.2621 19.4998 17.4998 19.2998 17.6998L15.6998 21.2998C15.5998 21.3998 15.4915 21.4705 15.3748 21.5118C15.2581 21.5538 15.1331 21.5748 14.9998 21.5748C14.8665 21.5748 14.7415 21.5538 14.6248 21.5118C14.5081 21.4705 14.3998 21.3998 14.2998 21.2998L10.6998 17.6998C10.5165 17.5165 10.4248 17.2875 10.4248 17.0128C10.4248 16.7375 10.5248 16.4998 10.7248 16.2998C10.9248 16.1165 11.1581 16.0205 11.4248 16.0118C11.6915 16.0038 11.9248 16.0998 12.1248 16.2998L13.9998 18.1748ZM7.9998 5.8248L6.1248 7.6998C5.90814 7.91647 5.66647 8.01647 5.3998 7.9998C5.13314 7.98314 4.90814 7.88314 4.7248 7.6998C4.5248 7.4998 4.4248 7.26214 4.4248 6.9868C4.4248 6.71214 4.51647 6.48314 4.6998 6.2998L8.2998 2.6998C8.3998 2.5998 8.50814 2.5288 8.6248 2.4868C8.74147 2.44547 8.86647 2.4248 8.9998 2.4248C9.13314 2.4248 9.25814 2.44547 9.3748 2.4868C9.49147 2.5288 9.5998 2.5998 9.6998 2.6998L13.2998 6.2998C13.4831 6.48314 13.5748 6.71647 13.5748 6.9998C13.5748 7.28314 13.4831 7.51647 13.2998 7.6998C13.0998 7.8998 12.8625 7.9998 12.5878 7.9998C12.3125 7.9998 12.0748 7.8998 11.8748 7.6998L9.9998 5.8248V11.9998C9.9998 12.2831 9.90414 12.5205 9.7128 12.7118C9.5208 12.9038 9.28314 12.9998 8.9998 12.9998C8.71647 12.9998 8.47914 12.9038 8.2878 12.7118C8.0958 12.5205 7.9998 12.2831 7.9998 11.9998V5.8248Z" fill="inherit"/>
</svg>

<svg viewBox="0 0 24 24" xmlns="http://www.w3.org/2000/svg"><path d="M14 18.2V12c0-.3.1-.5.3-.7.2-.2.4-.3.7-.3.3 0 .5.1.7.3.2.2.3.4.3.7v6.2l1.9-1.9c.2-.2.4-.3.7-.3.2 0 .5.1.7.3.2.2.3.4.3.7 0 .3-.1.5-.3.7l-3.6 3.6-.3.2h-.8a.9.9 0 0 1-.3-.2l-3.6-3.6a1 1 0 0 1-.3-.7c0-.3.1-.5.3-.7.2-.2.5-.3.7-.3.3 0 .5.1.7.3l1.9 1.9ZM8 5.8 6.1 7.7a1 1 0 0 1-.7.3 1 1 0 0 1-.7-.3 1 1 0 0 1-.3-.7c0-.3.1-.5.3-.7l3.6-3.6.3-.2a1.1 1.1 0 0 1 .8 0l.3.2 3.6 3.6c.2.2.3.4.3.7 0 .3-.1.5-.3.7a1 1 0 0 1-.7.3 1 1 0 0 1-.7-.3L10 5.8V12c0 .3-.1.5-.3.7a1 1 0 0 1-.7.3 1 1 0 0 1-.7-.3A1 1 0 0 1 8 12V5.8Z" fill="inherit"/></svg>
